X:1
T:6 Lieder, Op.26
T:Wiegenlied
T:Frau Clara Schumann freundlichst gewidmet
T:6 Lieder, Op.26
T:Josephine Lang
T:1. Wiegenlied
T:Josephine Lang (after August Heinrich Hoffmann von Fallersleben) 
T:Creative Commons copyright waiver (CC0 1.0 Universal)
T:Creative Commons copyright waiver (CC0 1.0 Universal)
T:Creative Commons copyright waiver (CC0 1.0 Universal)
T:Creative Commons copyright waiver (CC0 1.0 Universal)
T:Creative Commons copyright waiver (CC0 1.0 Universal)
C:Josephine Lang
Z:Josephine Lang (after August Heinrich Hoffmann von Fallersleben)
Z:Creative Commons copyright waiver (CC0 1.0 Universal)
%%score 1 { ( 2 3 ) | ( 4 5 ) }
L:1/8
Q:1/4=71
M:3/4
K:Eb
V:1 treble nm="Singstimme\nVoice"
V:2 treble nm="Pianoforte"
V:3 treble 
V:4 bass 
V:5 bass 
V:1
"^Ruhig und wiegend" z6 | z6 | z6 | z6 | z6 | z6 | z6 | z6 | z6 | z6 | z2 z2!p! B2 | F3 G F2 | %12
w: ||||||||||So|be- te, mein|
 E2 z2 B2 | F2 D2 E2 | F4 B2 | F3 G F2 | E2 E3 D | C3 G F2 | (F2 B,2) B2 | (F3 G) F2 | E4 B2 | %21
w: Kind, und|schlaf' dann in|Ruh'; und|schlie- sse die|blau- en Guck-|äu- ge- lein|zu! ! Die|Lämm- * chen|sind jetzt|
 (F2 D2) E2 | F4 z2 | G2 G2 =A2 | B4 D2 | (E2 C2) F2 | B,4 z2 | z6 |[Q:1/4=69] z2 F2!f! !^!B2- | %29
w: müd' _ und|matt,|und su- chen|ih- re|La- * ger-|statt,||summ, summ|
!>(! B6!>)! |[Q:1/4=67] z2!mf! F2"^dim." B2- |!>(! B6!>)! | z6 |[Q:1/4=65] z2!pp! B,2 B,2 | B,6 | %35
w: _|summ, summ,|_||summ, summ,|summ.|
 z2 z2 z"^a tempo" B, |[Q:1/4=71]!p! (G3 F) E2 | B,4 E2 | C4 E2 | B,4 z2 | G2 F2 E2 | B4 D2 | %42
w: Der|Vo- * gel|flog zum|Dor- nen-|strauch,|und weil es|Nacht ist,|
 (E2 C2) F2 | B,4 z!mp! F |!<(! F4 F2 | B4 F2 |"^fix\nincorrect\ndouble dot\n" F4- F =E | G4 G2 | %48
w: schläft _ er|auch. Die|Ster- ne|glän zen|hell _ und|klar, es|
 A4 A2 | A2 z2 A2 | (A2 B2) c2!<)! |!mf! B6- |!>(! B6!>)! | z6 | z2 F2!f! !^!B2- |!>(! B4 z2!>)! | %56
w: kommt von|dort der|En- * gel|Schaar,|_||summ, summ,|_|
 z2 F2!p! !^!B2- |!<(! B6-!<)! |!>(! B4!>)! z2 | z2!pp!!<(! B,2 B,2!<)! |!>(! B,6!>)! | z6 | %62
w: summ, summ!|_||summ, summ,|summ.||
[Q:1/4=70] z6 |[Q:1/4=69] z2[Q:1/4=67] z2!p![Q:1/4=65] B2 |[Q:1/4=71] F3 G F2 | E4 B2 | %66
w: |Es|kommt _ auch|ei- ner|
 (F2 D2) E2 | F2 z2 B2 | (F3 G) F2 | E2 E2 z D |!<(! (C2 G3) F!<)! |!mf! (F2 B,) z B2 | (F3 G) F2 | %73
w: her _ und|wacht an|dei- * nem|Bett- chen, die|gan- * ze|Nacht! _ Er|brei- * tet|
 E4 B2 | (F2 D2) E2 | F4 z2 |!f! G2 G2 =A z | %77
w: sei- ne|Flü- * gel|aus,|und ru- fet:|
!f![Q:1/4=69]"^riten." B2!<(! D2!<)![Q:1/4=67] (G!>(!F)!>)! | %78
w: Gott schüt- ze *|
[Q:1/4=65]!>(! (F4[Q:1/4=69] =A,2)!>)! |[Q:1/4=69]!mp! B,6 |[Q:1/4=71] z6 | z2 F2 B2- | %82
w: die- ses|Haus!||summ, summ!|
!>(! B6!>)! |[Q:1/4=69] z2!p! F2 B2- |!>(! B6!>)! | z6 |[Q:1/4=67] z2!pp!!<(! B,2 B,2!<)! | %87
w: _|summ, summ!|_||summ, summ,|
!>(! B,6- | !tenuto!.B,4!>)!!mp! B,2 |"^a tempo"[Q:1/4=71] G3 F E2 | B,4 B,2 | G2 F2 E2 | C6 | %93
w: summ!|_ So|be- te, mein|Kind, und|schlaf' dann in|Ruh!|
 C3 C D2 | E2 E2 F2 |!<(! D2!<)![Q:1/4=69]!>(! c2 B2!>)! |"^riten."[Q:1/4=67] (A2{BA} G2) (F2 | %97
w: schlie- sse die|mü- den Guck-|äu- ge- lein|zu, _ so|
"^a tempo"[Q:1/4=71] G3) F E2 | B,2 z2 B,2 | G2 F2 z E |!mp! e6- |!<(! e6-!<)! |!mf! e6- | e6- | %104
w: be- te, mein|Kind und|schla- fe in|Ruh'|_|||
"^ritard."!mp! e4 E2 | E2 D2 C2 | B,6- | B,2 !^!c2 !^!B2 | B,6- |"^dim."!>(! B,2 G2 F2 | %110
w: * und|schleis- se die|blau-|* en Guck-|äu-|* ge- lein|
"^smorz"{/E} E6!>)! | z6 | z6 | z6 | z6 | z6 | z6 | z6 | z6 | z6 | z6 | z6 | z6 | %123
w: zu!|||||||||||||
"_nach Hoffman." !fermata!z6 |] %124
w: |
V:2
!p!!pp! (e2 d2 c2 | e2 d2 c2) |!<(! B2 =F2 G2!<)! |!>(! (_A4 G2)!>)! |!pp! (e2 d2!<(! c2!<)! | %5
!>(! e2 d2 c2)!>)! |"^dimin." B2 F2 G2 |!pp! !^!E6- | E6- | E6 |"^molto legato" x6 | %11
 b2 z[I:staff +1] B,"^M.D."[I:staff -1]FB |"_leggiero" b2 z[I:staff +1] B,"^M.D."[I:staff -1]EB | %13
 b2 z[I:staff +1] B,[I:staff -1]FB | b2 z[I:staff +1] B,[I:staff -1]FB | %15
 b2 z[I:staff +1] B,[I:staff -1]FB | b2 z[I:staff +1] B,[I:staff -1]EB | f2 z x3 | %18
!>(! d'2 z x3!>)! | b2 z x3 | b2 z[I:staff +1] B,[I:staff -1]EB | b2 z x3 | b2 z x3 | %23
 b2 z[I:staff +1] B,[I:staff -1]EB | f2 z x3 | c'2 z x3 | d'2 z x3 | %27
!pp!!<(! [ab][ab] [ab]2 [ac']2!<)! |!>(! ([a-c']4 [abf']) z!>)! |!p! [AB][AB] [AB]2 [Ac]2 | %30
 ([A-c]4 [ABf]) z |!p![I:staff +1] [D,A,B,][D,A,B,] [D,A,B,]2 [D,A,C]2 | %32
 [A,B,D][A,B,D] [A,B,D]2[I:staff -1] E2 | FF F2 G2 |!pp! [DA]6 |"^dimin."!<(! (DFBd!<)!!>(!gf) | %36
!p! e2!>)! z x3 | G6 | ^F6 | G6 | G3 z z2 | D3 z z2 | c3 z z2 |!<(! d3 z z2!<)! |!p!!<(! d3 z z2 | %45
 _d3 z z2 | f3 z z2 | =e3 z z2 | f3 z z2 | c3 z z2 | f3 z z2 | B3 z z2!<)! | %52
!mf!!>(! FABd-f-"^remove \nincorrect \ntie from D\n"[fa]-!>)! |!p! [ab][ab]!<(! [ab]2 [ac']2 | %54
 ([f-a-c']4!mf! [fabf'])!<)! z |!p! [FAB][FAB] [FAB]2 [FAc]2 | ([F-A-c]4 [FABf]) z | %57
!pp![I:staff +1] [D,A,B,][D,A,B,] (.[D,A,B,]2 .[D,A,C]2) | %58
"_weigand"[I:staff -1] [A,B,D][A,B,D]!<(! (.[A,B,D]2 .[A,B,E]2)!<)! | %59
!p! [A,B,F][A,B,F]"_cresc." [A,B,F]2 [A,B,G]2 |!mp!!<(! [DA]6 | z DFABd!<)! | %62
"^as bar 47"!mf!!>(! f4- f D |"_ben legato" FABB!8va(!fb!>)! |!pp! b'3!8va)!"^loco" (B,FB) | %65
 b2 z z z2 | b2 z z z2 | b2 z z z2 | b2 z z z2 | b2 z z z2 |!<(! f2 z z z2!<)! |!f! d'2 z z z2 | %72
{/c'} !arpeggio![Bdfb] z z z z2 | !arpeggio![Begb] z z z z2 |{/c'} !arpeggio![Bdfb] z z z z2 | %75
 !arpeggio![Bdfb] z z z z2 | !arpeggio![Begb] z z z z2 |"_rit." f2 z z z2 | %78
 !arpeggio![f=ac'f'] z z z z2 |!mp! [bd'] z z z z2 | [ab][ab] [ab]2 [ac']2 | ([a-c']4 [abf']) z | %82
!p! [FAB][FAB] [FAB]2 [FAc]2 | ([A-c]4 [ABf]2) | %84
!pp!!<(![I:staff +1] [D,A,B,][D,A,B,] [D,A,B,]2 [D,A,C]2 | [A,B,D][A,B,D] [A,B,D]2[I:staff -1] E2 | %86
 FF F2 G2!<)! |!mp! [DA]6 |!<(! DF"^dim."Bd!<)!!>(!!fermata!gf!>)! |!p! e2 z z z2 | G6 | G6 | ^F6 | %93
 _G6 | F6 | B6 |"^riten." [DFBd]6 |"^riten." [EGBe] z z z z2 | G2 z z z2 | [EG]2 z z z2 |!<(! _G6 | %101
 _G6!<)! |!mf!"_cresc." F6 | CEF=Ace |!ff! [F=Acf]6- | [FAcf]4 [^F^f]2 |!f! [GBeg]2 z z z2 | %107
!mf! [Beb]6 |"_dim." z2 z z z2 |!p! !fermata![dfbd']6 | %110
 [egbe']2"^il canto espressivo e legato"!mp! d2 c2 |!<(! e2 d2 c2!<)! |!>(! B2 =F2 G2!>)! | A4 G2 | %114
!f!!<(! e2 d2 c2!<)! |!p!!>(! e2 d2 c2!>)! | B2 F2 G2 |"^cantando"!p!!<(! E6- | %118
"^leggiero" E6-!<)! |!p!!>(! E6- | E6 |"_M.G." (e6-!>)! |!pp!"^M.D." [eb]6) | %123
 !arpeggio!!fermata![ebe']6 |] %124
V:3
 z2 z (E^F=A) | z2 z (E^F=A) | z2 z[I:staff +1] _A,B,D |[I:staff -1] z DFB, E[I:staff +1]G, | %4
[I:staff -1] z2 z (E^F=A) | z2 z E=F=A | z2 z[I:staff +1] _A,B,D | %7
[I:staff -1] z2 z[I:staff +1] (G,B,[I:staff -1]G) | z2 z[I:staff +1] (G,B,[I:staff -1]G) | %9
 z2 z[I:staff +1] (G,B,[I:staff -1]G) | x6 | x6 | x6 | x6 | x6 | x6 | x6 | x6 | x6 | x6 | x6 | x6 | %22
 x6 | x6 | x6 | x6 | x6 | f2- f2 f2 | f4- f x | F2 F2 F2 | F4- F x | x6 | x4[I:staff +1] [A,B,]2 | %33
 [A,B,][A,B,] [A,B,]2 [A,B,]2 | [A,B,]6 | x6 |[I:staff -1] x3 z z2 | z2 z z z2 | z2 z z z2 | %39
 z2 z z z2 | x6 | x6 | x6 | x6 | x6 | x6 | x6 | x6 | x6 | x6 | x6 | x6 | z2 z dd-d | f2 f2 f2 | %54
 x6 | x6 | x6 | x6 | x6 | x6 |[I:staff +1] [A,B,]6 | x6 | x6 | x4!8va(! x2 | x3!8va)! x3 | x6 | %66
 x6 | x6 | x6 | x6 | x6 | x6 | x6 | x6 | x6 | x6 | x6 | x6 | x6 | x6 |[I:staff -1] f2 f2 f2 | %81
 f4- f x | x6 | F4- F2 | x6 | x4[I:staff +1] [A,B,]2 | [A,B,][A,B,] [A,B,]2 [A,B,]2 | [A,B,]6 | %88
 x6 | x6 |[I:staff -1] z2 z z z2 | z2 z z z2 | z2 z z z2 | z2 z z z2 | z2 z z z2 | z2 z z z2 | %96
 z2 z z z2 | x6 | x6 |[I:staff +1] [G,B,]2 x4 |[I:staff -1] z2 z z z2 | z2 z z z2 | x6 | x6 | x6 | %105
 x6 | x6 | x6 | x6 | x6 | z2 z E_G=A | z2 z E^F=A | z2 z[I:staff +1] A,B,D | %113
[I:staff -1] z DFB,E[I:staff +1]G, |[I:staff -1] z2 z E^F=A | z2 z E=F=A | x3[I:staff +1] _A,B,D | %117
[I:staff -1] z2 z[I:staff +1] G,B,[I:staff -1]E | z2 z[I:staff +1] G,B,[I:staff -1]G | %119
 z2 z[I:staff +1] G,B,[I:staff -1]G | z2 z[I:staff +1] G,B,[I:staff -1]G | x6 | x6 | x6 |] %124
V:4
!ped! (E,^F,=A,C) x2!ped-up! |!ped! (E,^F,=A,C) x2!ped-up! |!ped! B,,D,F, x3!ped-up! | %3
 z2 B,,2 E,,2 |!ped! (E,^F,=A,C) x2!ped-up! | =F,=A,C x x2 | B,,D,F, x3 | %7
!ped! (E,,B,,E,) z z2!ped-up! | (E,,B,,E,) z z2 | (E,,B,,E,) z z2 | (E,,B,,E, G,B,[I:staff -1]B) | %11
[I:staff +1] B,,D,A, x x2 |"^M.G." E,,B,,G, x x2 | B,,D,A, x x2 | B,,D,A, x x2 | B,,D,A, x x2 | %16
 E,,B,,G, x x2 | (F,=A,[I:staff -1]E Fcf) |[I:staff +1] (B,,F,B,[I:staff -1] DFB) | %19
[I:staff +1] (B,,D,_A, B,[I:staff -1]FB) |[I:staff +1] E,,B,,G, x x2 | B,,D,A, B,[I:staff -1]FB | %22
[I:staff +1] B,,D,A, B,[I:staff -1]FB |[I:staff +1] E,,B,,G, x x2 | F,,D,D[I:staff -1] FBf | %25
[I:staff +1] F,=A,[I:staff -1]E Fcf |[I:staff +1] B,,F,B,[I:staff -1] DBf- | %27
[I:staff +1][K:treble] dBdBeB | eBeBdB |[K:bass] DB,DB,EB, | EB,EB,DB, | F,,B,,F,,B,,F,,B,, | %32
 F,,B,,F,,B,,E,,B,, | D,,B,,E,,B,,C,,B,, | (B,,,F,,B,,D,F,B,) | z6 | E,,B,,E, G,B,[I:staff -1]E | %37
[I:staff +1] E,,B,,E, G,B,[I:staff -1]E |[I:staff +1] E,,=A,,E, ^F,=A,[I:staff -1]E | %39
[I:staff +1] E,,B,,E, G,B,[I:staff -1]E |[I:staff +1] E,,B,,G, G,C[I:staff -1]E | %41
[I:staff +1] F,,B,,F, B,[I:staff -1]FB |[I:staff +1] F,,F,=A,[I:staff -1] CFc | %43
[I:staff +1] [B,,,B,,]F,B,[I:staff -1] DFB |[I:staff +1] [B,,,B,,]F,B,[I:staff -1] DFB | %45
[I:staff +1] [B,,,B,,]F,B,[I:staff -1] _DFB |[I:staff +1] [_D,,_D,]F,B,[I:staff -1] _DFB | %47
[I:staff +1] [C,,C,]G,C[I:staff -1] =EGc |[I:staff +1] [F,,F,]A,C[I:staff -1] CFA | %49
[I:staff +1] [F,,C,]F,A,[I:staff -1] CFA |[I:staff +1] [E,,E,]F,A,[I:staff -1] CFA | %51
"^M.G."[I:staff +1] B,,D,F,A,B,[I:staff -1]D |[I:staff +1] z6 |[K:treble] dBdBeB | eBeBdB | %55
[K:bass] DB,DB,EB, | EB,EB,DB, | F,,B,,F,,B,,F,,B,, | F,,B,,F,,B,,E,,B,, | D,,B,,D,,B,,C,,B,, | %60
 B,,,F,,B,,D,F,A, | B, z z2 z2 | z!mp! D,F,A,B, z |"^fix rests" z6!ped!!ped-up! | %64
 ([B,,,B,,]D,A,) z z2 | E,,B,,G,[I:staff -1] B,EB |[I:staff +1] [B,,,B,,]D,A, B,[I:staff -1]FB | %67
[I:staff +1] [B,,,B,,]D,A, B,[I:staff -1]FB |[I:staff +1] [B,,,B,,]D,A, B,[I:staff -1]FB | %69
[I:staff +1] E,,B,,[E,G,] B,[I:staff -1]EB |[I:staff +1] [F,,F,]=A,[I:staff -1]E Fcf | %71
[I:staff +1] [B,,,B,,]F,B,[I:staff -1] B,FB- | %72
!ped![I:staff +1] [B,,,B,,]D,A, B,!ped-up![I:staff -1]FB- | %73
!ped![I:staff +1] E,,B,,G,[I:staff -1] B,!ped-up!EB- | %74
!ped![I:staff +1] [B,,,B,,]D,A,[I:staff -1] B,!ped-up!FB- | %75
!ped![I:staff +1] [B,,,B,,]D,A,[I:staff -1] B,!ped-up!FB- | %76
!ped![I:staff +1] E,,B,,G,[I:staff -1] B,!ped-up!EB | %77
!ped![I:staff +1] F,,F,D[I:staff -1] F!ped-up!Bf- | %78
!ped!!>(![I:staff +1] [F,,F,]=A,[I:staff -1]E F!ped-up!cf!>)! | %79
!ped![I:staff +1] [B,,,B,,]F,B,[I:staff -1] DB!fermata!f-!ped-up! |[I:staff +1][K:treble] dBdBeB | %81
 eBeBdB |[K:bass] DB,DB,EB, | EB,EB,DB, | F,,B,,F,,B,,F,,B,, | F,,B,,F,,B,,E,,B,, | %86
 D,,B,,D,,B,,C,,B,, | B,,,F,,B,,D,F,B, | z6 | E,,B,,E, G,B,[I:staff -1]E | %90
[I:staff +1] E,,B,,E, G,B,[I:staff -1]E |[I:staff +1] E,,B,,E, G,B,[I:staff -1]E | %92
[I:staff +1] E,,=A,,E, ^F,=A,[I:staff -1]E |[I:staff +1] E,,=A,,E, _G,=A,[I:staff -1]E | %94
[I:staff +1] F,,C,E, F,=A,C | [B,,,B,,]F,A,[I:staff -1] D-F-B- | %96
[I:staff +1] [B,,,B,,]A,B,[I:staff -1] DFB- |[I:staff +1] E,,B,,E, G,B,[I:staff -1]E | %98
[I:staff +1] E,,B,,E, G,-B,-[I:staff -1]E |[I:staff +1] E,,B,,E, G,B,[I:staff -1]E | %100
[I:staff +1] C,,_G,,C, __G,B,[I:staff -1]E |[I:staff +1] C,,_G,,C, __G,B,[I:staff -1]E | %102
[I:staff +1] F,,,F,,=A,,C,F,=A, | z6 | [F,CE]6- | [F,CE]6 | %106
 [B,,,B,,]!p!!<(!B,,G, B,[I:staff -1]EB!<)! |[I:staff +1][K:treble] [B,G]6 | %108
[K:bass] ([B,,,B,,]A,B,[I:staff -1] DFB) |[I:staff +1][K:treble]!ped! !fermata![B,Bc]6!ped-up! | %110
[K:bass] E,^F,=A,C x2 | E,^F,=A,C x2 | B,,D,=F, x3 | z2 B,,2 E,,2 | E,^F,=A,C x2 | =F,=A,C z x2 | %116
 B,,D,F, x3 |!ped! E,,B,,E, z z2!ped-up! |!ped! E,,B,,E, z z2!ped-up! |!ped! E,,B,,E, z z2 | %120
 E,,B,,E, z z2 | z6 | z6!ped-up! |[K:treble]!ped! !arpeggio!!fermata![EBg]6!ped-up! |] %124
V:5
 E,,2 z2 z2 | E,,2 z2 z2 | B,,,2 z2 z2 | x6 | E,,2 z2 z2 | E,,2 z2 z2 | B,,,2 z2 z2 | x6 | x6 | %9
 x6 | x6 | B,,,2 z2 z2 | E,,2 z2 z2 | B,,,2 z2 z2 | B,,,2 z2 z2 | B,,,2 z2 z2 | E,,2 z2 z2 | %17
 F,,2 z2 z2 | B,,,2 z2 z2 | B,,,2 z2 z2 | E,,2 z2 z2 | B,,,2 z2 z2 | B,,,2 z2 z2 | E,,2 z2 z2 | %24
 F,,2 z2 z2 | F,,2 z2 z2 | B,,,2 z2 z2 |[K:treble] x6 | x6 |[K:bass] x6 | x6 | x6 | x6 | x6 | x6 | %35
 x6 | x6 | x6 | x6 | x6 | x6 | x6 | x6 | x6 | x6 | x6 | x6 | x6 | x6 | x6 | x6 | D,,2 z2 z2 | x6 | %53
[K:treble] x6 | x6 |[K:bass] x6 | x6 | x6 | x6 | x6 | x6 | x6 | x6 | x3 x3 | x6 | x6 | x6 | x6 | %68
 x6 | x6 | x6 | x6 | x6 | x6 | x6 | x6 | x6 | x6 | x6 | x6 |[K:treble] x6 | x6 |[K:bass] x6 | x6 | %84
 x6 | x6 | x6 | x6 | x6 | x6 | x6 | x6 | x6 | x6 | x6 | x6 | x6 | x6 | x6 | x6 | x6 | x6 | x6 | %103
 x6 | x6 | x6 | x6 |[K:treble] x6 |[K:bass] x6 |[K:treble] x6 |[K:bass] E,,2 z2 z2 | E,,2 z2 z2 | %112
 B,,,2 z2 z2 | x6 | E,,2 z2 z2 | F,,2 z2 z2 | B,,,2 z2 z2 | x6 | x6 | x6 | x6 | x6 | x4 x x | %123
[K:treble] z6 |] %124

